X:1
T:Livre de Guittarre dédié au Roy - 1682 - 9. Bourée
T:Livre de Guittarre dédié au Roy - 1682 - 9. Bourrée
T:Robert de Visée
C:Robert de Visée
%%score { 1 | 2 }
L:1/8
Q:1/4=104
M:4/4
K:C
V:1 treble-8 nm="Guitare classique" snm="Guit."
V:2 tab stafflines=5 strings=E2,A2,D3,G3,B3,E4 nostems 
V:1
|: a2 | [EAcea]2 ab [EAcec']2 (ba) | [D^Gdeb]2 [DGdeb]3 (bc'd') | %3
 [Ed^g]2 [EAcea]2 !breath![Eea]3 g | ([A,a]2 E2 A2) :: [A,a]2 (A,B,) (C2 e^f) | %6
 [B,g]2 [B,dg]2 ([EA^cg]2 Fe) | [Adf]2 ([Adf]3 (gfe)) | ([^Ad]2 ef) !breath![Be]3 d | %9
 (!breath![EA^c]2 A,G) (F(cd)e) | [Adf]2 ed ([Ce]2 (dc)) | ([B,d]2 (cB)) [EAc]2 BA | %12
 !breath![D^GB]2 AB !breath![EB]3 A | [A,EA]4 :| %14
V:2
|: !1!A2 | [!5!E,!4!A,!3!C!2!E!1!A]2 !1!A !1!B [!5!E,!4!A,!3!C!2!E!1!c]2 (!1!B !1!A) | %2
 [!5!D,!4!^G,!3!D!2!E!1!B]2 [!5!D,!4!^G,!3!D!2!E!1!B]3 (!1!B !1!c !1!d) | %3
 [!5!E,!3!D!2!^G]2 [!5!E,!4!A,!3!C!2!E!1!A]2 !breath![!5!E,!2!E!1!A]3 !1!G | %4
 ([!5!A,,!1!A]2 !4!E,2 !3!A,2) :: [!5!A,,!1!A]2 (!5!A,, !5!B,,) (!5!C,2 !1!E !1!^F) | %6
 [!5!B,,!1!G]2 [!5!B,,!2!D!1!G]2 ([!4!E,!3!A,!2!^C!1!G]2 !4!F, !1!E) | %7
 [!3!A,!2!D!1!F]2 ([!3!A,!2!D!1!F]3 (!1!G !1!F !1!E)) | %8
 ([!3!^A,!2!D]2 !1!E !1!F) !breath![!2!B,!1!E]3 !2!D | %9
 (!breath![!4!E,!3!A,!2!^C]2 !5!A,, !3!G,) (!4!F, (!2!C !2!D) !1!E) | %10
 [!3!A,!2!D!1!F]2 !1!E !2!D ([!5!C,!1!E]2 (!2!D !2!C)) | %11
 ([!5!B,,!2!D]2 (!2!C !2!B,)) [!4!E,!3!A,!2!C]2 !2!B, !3!A, | %12
 !breath![!4!D,!3!^G,!2!B,]2 !3!A, !2!B, !breath![!4!E,!2!B,]3 !3!A, | [!5!A,,!4!E,!3!A,]4 :| %14

